svgs/sharp-light/bin-bottles.svg

<svg xmlns="http://www.w3.org/2000/svg" viewBox="0 0 640 512"><!--! Font Awesome Pro 6.6.0 by @fontawesome - https://fontawesome.com License - https://fontawesome.com/license (Commercial License) Copyright 2024 Fonticons, Inc. --><path d="M384 0l0 32 16 0 96 0 16 0 0-32L496 0 400 0 384 0zM352 192l0-2.5s0 0 0 0l0-45.5-.4-.2-32-16L256 96 128 96 32 144l0 48 32 0 0-28.2L135.6 128l112.9 0 71.2 35.6 0 28.4c0 0 0 0 0 .1l.4 0 32 0zm223.6 0c0 0 0 0 0-.1l0-31.9 0-65.9L511.3 64 383.9 64 321.8 93.1l36.5 18.2L391 96l113.2 0 39.4 18.5 0 71.9c-.3 1.8-.5 3.7-.5 5.6l32 0 .5 0zm30.5 64l1.9 0 32 0 0-32-32 0-1.9 0L592 224l-14.3 0L62.3 224 48 224l-14.1 0L32 224 0 224l0 32 32 0 1.9 0L64 512l512 0 30.1-256zM547.5 480L92.5 480 66.1 256l507.8 0L547.5 480zM144 0L128 0l0 16 0 16-16 0 0 32 16 0 16 0 16 0 0-16 0-16 64 0 0 16 0 16 16 0 16 0 16 0 0-32-16 0 0-16 0-16L240 0 144 0z"/></svg>

<svg xmlns="http://www.w3.org/2000/svg" viewBox="0 0 640 512"><!--! Font Awesome Pro 6.4.0 by @fontawesome - https://fontawesome.com License - https://fontawesome.com/license (Commercial License) Copyright 2023 Fonticons, Inc. --><path d="M384 0V32h16 96 16V0H496 400 384zM352 192v-2.5l0 0V144l-.4-.2-32-16L256 96H128L32 144v48H64V163.8L135.6 128H248.4l71.2 35.6v28.4 .1h.4 32zm223.6 0v-.1V160 94.1L511.3 64H383.9L321.8 93.1l36.5 18.2L391 96H504.2l39.4 18.5v71.9c-.3 1.8-.5 3.7-.5 5.6h32 .5zm30.5 64H608h32V224H608h-1.9H592 577.7 62.3 48 33.9 32 0v32H32h1.9L64 512H576l30.1-256zM547.5 480H92.5L66.1 256H573.9L547.5 480zM144 0H128V16 32H112V64h16 16 16V48 32h64V48 64h16 16 16V32H256V16 0H240 144z"/></svg>
